vsi/briefcase_light.svg

<svg viewBox="0 0 16 16" fill="none" xmlns="http://www.w3.org/2000/svg" height="1em" width="1em">
  <path d="M14.5002 4H11.0002V2.5L10.5002 2H5.50024L5.00024 2.5V4H1.50024L1.00024 4.5V12.5L1.50024 13H14.5002L15.0002 12.5V4.5L14.5002 4ZM6.00024 3H10.0002V4H6.00024V3ZM14.0002 5V5.76L10.0002 8V7.5L9.51024 7H6.51024L6.00024 7.5V8L2.00024 5.71V5H14.0002ZM9.00024 8V9H7.00024V8H9.00024ZM2.00024 12V6.86L6.00024 9.15V9.5L6.50024 10H9.50024L10.0002 9.5V9.19L14.0002 6.91V12H2.00024Z" fill="#424242"/>
</svg>

<svg viewBox="0 0 16 16" fill="none" xmlns="http://www.w3.org/2000/svg" height="1em" width="1em">
  <path d="M14.5 4H11V2.5l-.5-.5h-5l-.5.5V4H1.5l-.5.5v8l.5.5h13l.5-.5v-8l-.5-.5ZM6 3h4v1H6V3Zm8 2v.76L10 8v-.5L9.51 7h-3L6 7.5V8L2 5.71V5h12ZM9 8v1H7V8h2Zm-7 4V6.86l4 2.29v.35l.5.5h3l.5-.5v-.31l4-2.28V12H2Z" fill="#424242"/>
</svg>
